X: 402
T: The Johnston Jig
C: Bert Murray
R: jig
B: Bert Murray's "Bon Accord Collection" 1999 p.40
%
Z: 2011 John Chambers <jc:trillian.mit.edu>
M: 6/8
L: 1/8
K: G
|:\
vB2G G>FG | E>GG D>GG | C>GG B,>GG | A,>AG F>ED |\
B2G G>FG | E>GG D>GG | E>FG D>CA, | G,>GG G3 :|
B2d d>Bd | g>fe d>BG | E2c D>BB | E>AG F>ED |\
B2d d>Bd | g>fe d>BG | E>FG D>CA, | G,>GG G3 ||
B2d d>Bd | c2e e>ce | B2d d>BG | E>AG F>GA |\
B2G G>FG | E>GG D>GG | E>FG D>CA, | G,>GG G3 |]
